sanatorium/img/svg/icon-inst.svg

<svg width="30" height="30" viewBox="0 0 30 30" fill="none" xmlns="http://www.w3.org/2000/svg">
<path d="M21.2855 0H8.71453C3.90932 0 0 3.90932 0 8.71453V21.2855C0 26.0907 3.90932 30 8.71453 30H21.2855C26.0907 30 30 26.0907 30 21.2855V8.71453C30 3.90932 26.0907 0 21.2855 0ZM27.6562 21.2855C27.6562 24.7983 24.7983 27.6562 21.2855 27.6562H8.71453C5.20166 27.6562 2.34375 24.7983 2.34375 21.2855V8.71453C2.34375 5.20166 5.20166 2.34375 8.71453 2.34375H21.2855C24.7983 2.34375 27.6562 5.20166 27.6562 8.71453V21.2855Z" fill="#D9576B"/>
<path d="M15 6.91406C10.5414 6.91406 6.91406 10.5414 6.91406 15C6.91406 19.4586 10.5414 23.0859 15 23.0859C19.4586 23.0859 23.0859 19.4586 23.0859 15C23.0859 10.5414 19.4586 6.91406 15 6.91406ZM15 20.7422C11.8338 20.7422 9.25781 18.1662 9.25781 15C9.25781 11.8338 11.8338 9.25781 15 9.25781C18.1662 9.25781 20.7422 11.8338 20.7422 15C20.7422 18.1662 18.1662 20.7422 15 20.7422Z" fill="#D9576B"/>
<path d="M23.2031 7.96875C23.8503 7.96875 24.375 7.44408 24.375 6.79688C24.375 6.14967 23.8503 5.625 23.2031 5.625C22.5559 5.625 22.0312 6.14967 22.0312 6.79688C22.0312 7.44408 22.5559 7.96875 23.2031 7.96875Z" fill="#D9576B"/>
</svg>

<svg width="30" height="30" fill="none" xmlns="http://www.w3.org/2000/svg"><path d="M21.285 0H8.715C3.909 0 0 3.91 0 8.715v12.57C0 26.091 3.91 30 8.715 30h12.57C26.091 30 30 26.09 30 21.285V8.715C30 3.909 26.09 0 21.285 0zm6.371 21.285a6.378 6.378 0 01-6.37 6.371H8.714a6.378 6.378 0 01-6.371-6.37V8.714a6.378 6.378 0 016.37-6.371h12.571a6.378 6.378 0 016.371 6.37v12.571z" fill="#D9576B"/><path d="M15 6.914c-4.459 0-8.086 3.627-8.086 8.086 0 4.459 3.627 8.086 8.086 8.086 4.459 0 8.086-3.627 8.086-8.086 0-4.459-3.627-8.086-8.086-8.086zm0 13.828A5.749 5.749 0 019.258 15 5.749 5.749 0 0115 9.258 5.749 5.749 0 0120.742 15 5.749 5.749 0 0115 20.742zm8.203-12.773a1.172 1.172 0 100-2.344 1.172 1.172 0 000 2.344z" fill="#D9576B"/></svg>
